assets/images/cs1.svg

<svg width="31" height="22" viewBox="0 0 31 22" fill="none" xmlns="http://www.w3.org/2000/svg">
<g clip-path="url(#clip0_38_78)">
<path d="M30.2399 3.38C30.0629 2.72884 29.7189 2.13525 29.2417 1.65812C28.7646 1.18099 28.171 0.836907 27.5199 0.66C25.0999 0 15.4399 0 15.4399 0C15.4399 0 5.76985 0 3.35985 0.64C2.70812 0.822274 2.11485 1.17059 1.63808 1.65086C1.1613 2.13114 0.817349 2.72695 0.639854 3.38C0.198806 5.83176 -0.0154326 8.31894 -0.000145599 10.81C-0.0161153 13.3011 0.198129 15.7883 0.639854 18.24C0.808757 18.8994 1.14948 19.5023 1.6273 19.9872C2.10512 20.472 2.70295 20.8215 3.35985 21C5.79985 21.66 15.4399 21.66 15.4399 21.66C15.4399 21.66 25.0999 21.66 27.5199 21.02C28.1719 20.8449 28.7665 20.5015 29.2439 20.024C29.7213 19.5466 30.0648 18.9521 30.2399 18.3C30.6809 15.8482 30.8951 13.3611 30.8799 10.87C30.906 8.37189 30.6917 5.87705 30.2399 3.42V3.38ZM12.3599 15.44V6.18L20.3599 10.81L12.3599 15.44Z" fill="#BABAB9"/>
</g>
<defs>
<clipPath id="clip0_38_78">
<rect width="30.88" height="21.62" fill="white"/>
</clipPath>
</defs>
</svg>

<svg width="31" height="22" fill="none" xmlns="http://www.w3.org/2000/svg"><g clip-path="url(#clip0_38_78)"><path d="M30.24 3.38A3.87 3.87 0 0027.52.66C25.1 0 15.44 0 15.44 0S5.77 0 3.36.64A3.91 3.91 0 00.64 3.38 40.56 40.56 0 000 10.81a40.44 40.44 0 00.64 7.43A3.85 3.85 0 003.36 21c2.44.66 12.08.66 12.08.66s9.66 0 12.08-.64a3.85 3.85 0 002.72-2.72 40.68 40.68 0 00.64-7.43 38.945 38.945 0 00-.64-7.45v-.04zM12.36 15.44V6.18l8 4.63-8 4.63z" fill="#BABAB9"/></g><defs><clipPath id="clip0_38_78"><path fill="#fff" d="M0 0h30.88v21.62H0z"/></clipPath></defs></svg>
